X: 1946
T: Vâd-i Vasl Etmiş İken
C: Ahmet Avni Konuk
O: Turkey
F: http://compmusic.upf.edu/node/140
N: rehavi--kupe--devrirevanihindi--vad-i_vasl--ahmet_avni_konuk
N: makam= rehavi
N: form= kupe
N: usul= devrirevanihindi = 14/8
M: 14/8
L: 1/16
K: C _1/4B ^f  
Q: 1/4=102
%%MIDI tuningsystem comma53
G4 G2D4G4GA G2A2 _2/4B/A/B/c/BA G2z2  | \
w:  Vâd_ i  vasl_ *  et  | 
dc_2/4B2 c2d4e2 {=f}edd6 e2{f}ed d2z2  | 
w:  miş  *  *  i ken  *  *  *  *  ol   | 
cdc2 d2e2 ^1/4fg=fe d2d2 c2d2 dcB^A B2z2  | \
w:  dön *  *  dü  do *  *  *  *  *  lap   | 
_2/4BcB2 A2G4e2 =f2e2 d2^3/4c2 d6z2  | 
w:  ey *  *  *  *  le *  di    | 
G4 _2/4B2A3G^3/4F4F2 E2F2 AGFE D2z2  | \
w:  Ol  Re hâ *  *  vî   | 
G4 A2_2/4B3GA2 A{B}GG6 dc_1/4B^A B2z2  | 
w:  dil be ri  *  *  *  *  *  uş  | 
A_2/4BA2 B2c3ed2 c2B4A2 A/G/A/B/AG ^3/4FED2  | \
w:  şâ *  *  kı  bî *  *  *  tâb   | 
G6D4_2/4B2 AGG2 ^3/4F2AG G6z2  | 
w:  ey *  le *  *  di    | 
|


